Sources/FrostedUI/Resources/Icons.xcassets/bitcoin24.imageset/bitcoin-24.svg

<svg width="24" height="24" viewBox="0 0 24 24" fill="none" xmlns="http://www.w3.org/2000/svg" data-fui-icon="true">
  <path
    d="M12 1C18.0751 1 23 5.92487 23 12C23 18.0751 18.0751 23 12 23C5.92487 23 1 18.0751 1 12C1 5.92487 5.92487 1 12 1ZM12 2.5C6.75329 2.5 2.5 6.75329 2.5 12C2.5 17.2467 6.75329 21.5 12 21.5C17.2467 21.5 21.5 17.2467 21.5 12C21.5 6.75329 17.2467 2.5 12 2.5ZM14 5C14.4142 5 14.75 5.33579 14.75 5.75V6.56348C16.1742 6.85472 17.2461 8.11471 17.2461 9.625C17.2461 10.5766 16.8184 11.4268 16.1475 12C16.8184 12.5732 17.2461 13.4234 17.2461 14.375C17.2461 15.8853 16.1742 17.1453 14.75 17.4365V18.25C14.75 18.6642 14.4142 19 14 19C13.5858 19 13.25 18.6642 13.25 18.25V17.5H10.75V18.25C10.75 18.6642 10.4142 19 10 19C9.58579 19 9.25001 18.6642 9.25 18.25V17.5H7.50391C7.08992 17.4997 6.75391 17.164 6.75391 16.75C6.75391 16.3359 7.08991 16.0003 7.50391 16H8.2793L8.25391 8H7.50391C7.08991 7.99974 6.75391 7.66405 6.75391 7.25C6.75391 6.83595 7.08991 6.50026 7.50391 6.5H9.25V5.75C9.25 5.33579 9.58579 5 10 5C10.4142 5 10.75 5.33579 10.75 5.75V6.5H13.25V5.75C13.25 5.33579 13.5858 5 14 5ZM9.7793 16H14.1211C15.0183 15.9997 15.7461 15.2723 15.7461 14.375C15.7461 13.4777 15.0183 12.7503 14.1211 12.75H9.76855L9.7793 16ZM9.76465 11.25H14.1211L14.2871 11.2412C15.1063 11.1578 15.7461 10.4662 15.7461 9.625C15.7461 8.7277 15.0183 8.00026 14.1211 8H9.75391L9.76465 11.25Z"
    fill="currentColor"
  />
</svg>

<svg xmlns="http://www.w3.org/2000/svg" width="24" height="24" fill="none" data-fui-icon="true" viewBox="0 0 24 24"><path fill="currentColor" d="M12 1c6.075 0 11 4.925 11 11s-4.925 11-11 11S1 18.075 1 12 5.925 1 12 1m0 1.5a9.5 9.5 0 1 0 0 19 9.5 9.5 0 0 0 0-19M14 5a.75.75 0 0 1 .75.75v.813a3.126 3.126 0 0 1 2.496 3.062c0 .952-.428 1.802-1.098 2.375a3.12 3.12 0 0 1 1.098 2.375c0 1.51-1.072 2.77-2.496 3.061v.814a.75.75 0 0 1-1.5 0v-.75h-2.5v.75a.75.75 0 0 1-1.5 0v-.75H7.504a.75.75 0 0 1 0-1.5h.775l-.025-8h-.75a.75.75 0 0 1 0-1.5H9.25v-.75a.75.75 0 0 1 1.5 0v.75h2.5v-.75A.75.75 0 0 1 14 5M9.78 16h4.341a1.625 1.625 0 0 0 0-3.25H9.77zm-.015-4.75h4.356l.166-.009A1.625 1.625 0 0 0 14.121 8H9.754z"/></svg>
